brandFactory_export/3.Masa/Supermercado _3Masa.svg

<?xml version="1.0" encoding="UTF-8"?>
<svg width="24px" height="24px" viewBox="0 0 24 24" version="1.1" xmlns="http://www.w3.org/2000/svg" xmlns:xlink="http://www.w3.org/1999/xlink">
    <title>3.Masa/Supermercado _3Masa</title>
    <g id="Symbols" stroke="none" stroke-width="1" fill="none" fill-rule="evenodd">
        <g id="3.Masa/Supermercado-_3Masa" fill="#5CB615" fill-rule="nonzero">
            <path d="M8.88403361,1.01176471 C8.61848739,1.00840336 8.40672269,0.779831933 8.41004457,0.497478992 C8.41344538,0.221848739 8.62521008,0 8.8907563,0 L9.33445378,0 C9.82521008,0 10.2420168,0.346218487 10.3764706,0.863865546 C10.4201681,1.03193277 10.4806723,1.34117647 10.5478992,1.70084034 L13.9865546,1.70084034 C14.1378151,1.70084034 14.2789916,1.77478992 14.3697479,1.90252101 C14.4605042,2.0302521 14.487395,2.19159664 14.4470588,2.34621849 C14.4470588,2.34621849 14.1109244,3.58991597 13.9294118,4.23529412 C13.7546218,4.87058824 13.3277311,5.25042017 12.7932773,5.25042017 L11.1462185,5.25042017 C10.4470588,5.25042017 10.0403361,4.59159664 9.95294118,3.97983193 C9.89915966,3.6302521 9.78151261,2.93781513 9.67394958,2.31260504 C9.67058824,2.30252101 9.67058824,2.29243697 9.66722689,2.2789916 C9.57983193,1.77815126 9.49243697,1.32436975 9.44201681,1.12605042 C9.41176471,1.01512605 9.34117647,1.00840336 9.32436975,1.00840336 C9.08907563,1.01512605 8.88403361,1.01176471 8.88403361,1.01176471 Z M11.210084,5.69411765 L11.2436975,5.69411765 C11.3344538,5.69747899 11.687395,5.73445378 11.687395,6.18151261 C11.687395,6.63193277 11.3344538,6.66890756 11.2470588,6.66890756 L11.2033613,6.66890756 C11.1092437,6.66554622 10.7630252,6.63193277 10.7630252,6.17815126 C10.7630252,5.72773109 11.1092437,5.69411765 11.2,5.6907563 L11.210084,5.6907563 L11.210084,5.69411765 Z M12.6890756,5.69411765 L12.7226891,5.69411765 C12.8134454,5.69747899 13.1663866,5.73445378 13.1663866,6.18151261 C13.1663866,6.63193277 12.8134454,6.66890756 12.7260504,6.66890756 L12.6857143,6.66890756 C12.5915966,6.66554622 12.2453782,6.63193277 12.2453782,6.17815126 C12.2453782,5.72773109 12.5915966,5.69411765 12.6823529,5.6907563 L12.6890756,5.6907563 L12.6890756,5.69411765 Z M19.8285714,22.0470588 L22.2117647,22.0470588 L22.2117647,12.7596639 L19.8285714,12.7596639 L19.8285714,22.0470588 L19.8285714,22.0470588 Z M14.8302521,22.0638655 L14.8302521,17.0521008 L9.15294118,17.0521008 L9.15294118,22.087395 L14.8302521,22.0638655 L14.8302521,22.0638655 Z M11.0453782,10.9378151 C10.8403361,11.1462185 10.7361345,11.5058824 10.7361345,12.0033613 C10.7361345,12.5008403 10.8403361,12.8537815 11.0453782,13.0621849 C11.2436975,13.2672269 11.5764706,13.3680672 12.0336134,13.3680672 C12.4907563,13.3680672 12.8235294,13.2672269 13.0252101,13.0621849 C13.2302521,12.8537815 13.3344538,12.5008403 13.3344538,12.0033613 C13.3344538,11.5058824 13.2302521,11.1495798 13.0252101,10.9411765 C12.8235294,10.7361345 12.4907563,10.6319328 12.0336134,10.6319328 C11.5764706,10.6319328 11.2436975,10.7361345 11.0453782,10.9378151 Z M1.47563025,22.0470588 L3.85882353,22.0470588 L3.85882353,12.7596639 L1.47563025,12.7596639 L1.47563025,22.0470588 L1.47563025,22.0470588 Z M22.9344538,11.2403361 C23.3310924,11.2403361 23.6571429,11.5798319 23.6571429,12 L23.6571429,22.8067227 C23.6571429,23.2268908 23.3310924,23.6201681 22.9310924,23.6201681 L15.7915966,23.6201681 L15.5495798,23.6235294 L8.42689076,23.6235294 C8.39663866,23.6235294 8.37647059,23.610084 8.34621849,23.6067227 L4.15462185,23.6235294 L4.1512605,23.6235294 C4.05378151,23.6235294 3.70756303,23.6201681 3.70756303,23.6201681 L0.752941176,23.6201681 C0.356302521,23.6201681 0.0302521008,23.2268908 0.0302521008,22.8067227 L0.0302521008,12 C0.0302521008,11.5798319 0.352941176,11.2403361 0.752941176,11.2403361 L4.1210084,11.2403361 L4.1210084,8.39327731 C4.1210084,7.65042017 4.84705882,7.00168067 5.67058824,7.00168067 L18.2756303,7.00168067 C19.102521,7.00168067 19.8252101,7.65378151 19.8252101,8.39663866 L19.8252101,11.2436975 L22.9344538,11.2436975 L22.9344538,11.2403361 Z" id="Supermercado-_3Masa"></path>
        </g>
    </g>
</svg>

<svg width="24" height="24" viewBox="0 0 24 24" xmlns="http://www.w3.org/2000/svg"><path d="M8.884 1.012A.494.494 0 018.41.497.49.49 0 018.89 0h.444c.491 0 .908.346 1.042.864.044.168.105.477.172.837h3.439a.47.47 0 01.383.202.53.53 0 01.077.443s-.336 1.244-.518 1.89c-.174.635-.601 1.014-1.136 1.014h-1.647c-.699 0-1.106-.658-1.193-1.27-.054-.35-.171-1.042-.28-1.667-.002-.01-.002-.02-.006-.034-.087-.5-.175-.955-.225-1.153-.03-.11-.1-.118-.118-.118-.235.007-.44.004-.44.004zm2.326 4.682h.034c.09.003.443.04.443.488 0 .45-.353.487-.44.487h-.044c-.094-.003-.44-.037-.44-.49 0-.451.346-.485.437-.488h.01v.003zm1.48 0h.033c.09.003.443.04.443.488 0 .45-.353.487-.44.487h-.04c-.094-.003-.44-.037-.44-.49 0-.451.346-.485.436-.488h.007v.003zm7.139 16.353h2.383V12.76h-2.383v9.287zm-4.999.017v-5.012H9.153v5.035l5.677-.023zm-3.785-11.126c-.205.208-.309.568-.309 1.065 0 .498.104.85.31 1.06.198.204.53.305.988.305.457 0 .79-.1.991-.306.205-.208.31-.561.31-1.059 0-.497-.105-.853-.31-1.062-.201-.205-.534-.31-.991-.31-.458 0-.79.105-.989.307zm-9.57 11.11H3.86V12.76H1.476v9.287zm21.46-10.808c.396 0 .722.34.722.76v10.807c0 .42-.326.813-.726.813h-7.14l-.241.004H8.427c-.03 0-.05-.014-.08-.017l-4.192.017H4.15l-.443-.004H.753c-.397 0-.723-.393-.723-.813V12c0-.42.323-.76.723-.76H4.12V8.393c0-.743.726-1.391 1.55-1.391h12.605c.827 0 1.55.652 1.55 1.395v2.847h3.108v-.004z" fill="#5CB615" fill-rule="nonzero"/></svg>
